Obsidian/actions/24s/color-select.svg

<svg height="24" viewBox="0 0 24 24" width="24" xmlns="http://www.w3.org/2000/svg"><path d="m13.470703.9921875c-.38956.0113-.75946.173865-1.03125.453125l-2.357422 2.3574219-.003906-.0058594-1.9375-1.9375-1.4140625 1.4140625 1.4394531 1.4394531-7.1738281 7.1738284v3.11914h3.1210937l7.1718748-7.1718746 1.441406 1.4394531 1.414063-1.4140625-1.9375-1.9355469 2.357422-2.3574219c.97937-.9538199.276636-2.6136187-1.089844-2.5742187zm-4.4667968 4.5507813 1.4140628 1.4140624-6.8886721 6.8886718-1.4140625-1.414062z" fill="#bebebe" transform="translate(4 4)"/></svg>

<svg xmlns="http://www.w3.org/2000/svg" width="24" height="24" viewBox="0 0 24 24">
 <defs>
  <style id="current-color-scheme" type="text/css">
   .ColorScheme-Text { color:#bebebe; } .ColorScheme-Highlight { color:#4285f4; }
  </style>
 </defs>
 <path style="fill:currentColor" class="ColorScheme-Text" d="M 13.470703 0.9921875 C 13.081143 1.0034875 12.711243 1.1660525 12.439453 1.4453125 L 10.082031 3.8027344 L 10.078125 3.796875 L 8.140625 1.859375 L 6.7265625 3.2734375 L 8.1660156 4.7128906 L 0.9921875 11.886719 L 0.9921875 15.005859 L 4.1132812 15.005859 L 11.285156 7.8339844 L 12.726562 9.2734375 L 14.140625 7.859375 L 12.203125 5.9238281 L 14.560547 3.5664062 C 15.539917 2.6125863 14.837183 0.9527875 13.470703 0.9921875 z M 9.0039062 5.5429688 L 10.417969 6.9570312 L 3.5292969 13.845703 L 2.1152344 12.431641 L 9.0039062 5.5429688 z" transform="translate(4 4)"/>
</svg>
